X:1
T:Balm in Gilead
T:Balm in Gilead
T:African-American Spiritual
T:Public Domain Courtesy of the Cyber Hymnal™
C:African-American Spiritual
Z:Public Domain
Z:Courtesy of the Cyber Hymnal™
%%score ( 1 2 ) ( 3 4 )
L:1/8
Q:1/4=110
M:4/4
K:F
V:1 treble 
V:2 treble 
V:3 bass 
V:4 bass 
V:1
 (AG) ([FA][EG]) | [CF]6 C2 | F[FG] [FA]4 F2 | [FA]3 [FA] [FB]2 [FA]2 | G4 B4- | %5
 [EB]4 (AG) ([EA][EG]) | [CF]6 C2 | F[FG] [FA]4 F2 | [FA]3 F [EA]2 [EG]2 | [CF]6 F2 | %10
 [FA]3 F [FA]2 [FA]2 | [GB]2 [Ac]4 [GB]2 | [FA]2 [FA]2 [Fc]2 [FA]2 | [EG]6 [DF]2 | %14
 [FA]3 F [FA]2 [FA]2 | [GB]2 [Ac]4 [GB]2 | [FA]2 F2 [EA]2 [EG]2 | F4 B4- | [DB]4 |] %19
V:2
 F2 x2 | x6 C2 | F x4 F2 x | x8 | E8- | x4 F2 x2 | x6 C2 | F x4 F2 x | x8 | x6 F2 | x3 F x4 | x8 | %12
 x8 | x8 | x3 F x4 | x8 | x2 F2 x4 | D8- | x4 |] %19
V:3
 (CB,) [F,C][F,B,] | [F,A,]6 [G,B,]2 | [F,A,][F,B,] [F,C]4 [F,A,]2 | [F,C]3 [F,C] [F,D]2 [F,C]2 | %4
 B,4 D4- | [C,D]4 (CB,) ([C,C][C,B,]) | [F,A,]6 [G,B,]2 | [F,A,][F,B,] [F,C]4 [F,A,]2 | %8
 [C,C]3 [C,A,] [C,C]2 [C,B,]2 | [F,A,]6 [F,A,]2 | [F,C]3 [F,A,] [F,C]2 [F,C]2 | %11
 [F,D]2 [F,E]4 [F,D]2 | [F,C]2 [F,C]2 [A,C]2 [F,C]2 | [C,C]6 [C,B,]2 | %14
 [F,C]3 [F,A,] [F,C]2 [F,C]2 | [F,D]2 [F,_E]4 [B,D]2 | C2 [C,A,]2 [C,C]2 [C,B,]2 | %17
 ([D,A,]4 [B,,B,]4- | [B,,B,]4) |] %19
V:4
 F,2 x2 | x8 | x8 | x8 | C,8- | x4 C,2 x2 | x8 | x8 | x8 | x8 | x8 | x8 | x8 | x8 | x8 | x8 | %16
 C2 x6 | x8 | x4 |] %19

